recipes/netatmo-energy/icon.svg

<svg height="1024" viewBox="0 0 1024 1024" width="1024" xmlns="http://www.w3.org/2000/svg" xmlns:xlink="http://www.w3.org/1999/xlink"><linearGradient id="a" x1="50%" x2="50%" y1="0%" y2="100%"><stop offset="0" stop-color="#ffa900"/><stop offset="1" stop-color="#f70"/></linearGradient><g fill="none" fill-rule="evenodd"><path d="m0 0h1024v1024h-1024z" fill="url(#a)" fill-rule="evenodd"/><path d="m.5.5h1023v1023h-1023z" stroke="#979797"/><path d="m836 498c-3.559-.807-6.602-3.072-10.171-3.74-7.982-1.493-15.8 4.127-18.774 11.356-2.018 4.903-1.055 11.182-1.055 16.384v33 116c0 6.628 1.084 14.359-.455 20.83-4.338 18.237-22.146 32.289-41.375 27.715-33.687-8.014-28.17-47.16-28.17-73.545v-22-194-63c0-10.426 1.119-21.56-.129-31.911-6.119-50.775-71.979-75.12-110.835-43.307-11.408 9.34-21.025 23.063-24.581 37.504-4.767 19.357-2.455 40.868-2.455 60.714v218 63c0 7.067.968 14.942-.259 21.911-1.825 10.359-9.75 19.695-19.051 24.269-15.678 7.709-39.47.524-45.98-16.455-3.787-9.877-2.71-20.312-2.71-30.725v-49-184c0-30.408 2.132-61.681-.09-92-2.01-27.423-18.968-54.553-45.78-63.401-4.294-1.418-8.578-3.41-13.145-3.581-7.211-.269-15.709-1.044-22.815.241-27.854 5.038-49.011 25.594-55.715 53.027-2.564 10.491-1.455 22.956-1.455 33.714v58 187 59c0 8.775.846 18.259-1.456 26.829-3.188 11.869-14.111 20.956-25.714 23.716-18.269 4.346-35.507-7.8-41.102-24.834-2.649-8.067-.728-19.266-.728-27.711v-59-184-56c0-13.052.68-26.009-2.455-38.714-6.14-24.882-28.319-46.419-53.715-51.027-7.103-1.288-15.607-.509-22.815-.241-7.228.27-14.252 3.4-20.615 6.582-16.956 8.478-29.357 21.627-35.672 39.839-5.103 14.715-2.728 32.179-2.728 47.561v88 50c0 6.434-1.466 14.914 3.26 20.14 8.965 9.913 24.837 6.028 29.685-5.756 2.123-5.159 1.055-11.907 1.055-17.384v-34-48c0-27.113-1.839-54.945.054-81.985 1.996-28.513 42.065-41.921 60.164-19.27 10.393 13.006 9.782 27.422 9.782 43.255v47 228 38c0 6.392-.884 13.53.259 19.83 4.656 25.661 28.301 50.84 54.831 54.041 9.153 1.105 20.601 1.879 29.625-.326 24.44-5.973 46.204-27.651 50.91-52.545 2.764-14.618 2.375-29.083 2.375-44v-56-181-55c0-8.379-1.619-18.691.46-26.829 3.359-13.152 16.1-24.459 29.579-26.042 16.653-1.956 33.375 9.888 37.501 26.042 2.153 8.429.46 19.148.46 27.829v56 234c0 17.823-.467 35.438 4.455 52.711 6.607 23.185 28.595 39.162 50.831 44.838 6.637 1.694 13.019 1.258 19.714.621 6.361-.606 12.423-.769 18.561-2.898 22.562-7.824 39.73-29.1 44.064-52.272 2.242-11.986 1.375-24.851 1.375-37v-60-190-45c0-18.672-1.318-40.656 18.2-50.4 3.448-1.722 7.208-3.25 10.97-4.145 14.703-3.497 32.552 7.707 37.424 21.676 3.665 10.507 2.406 21.859 2.406 32.869v56 211 40c0 6.394-.88 13.528.259 19.83 2.769 15.309 9.294 29.402 19.526 41.116 4.463 5.108 11.816 9.054 17.815 12.054 23.814 11.91 53.058 9.926 74.655-6.223 10.471-7.83 17.086-19.89 22.326-31.581 3.607-8.046 3.419-17.568 3.419-26.196v-36-88-35c0-5.635.975-12.305-.278-17.816-.677-2.978-2.95-5.177-3.722-8.184z" fill="#fffdf9" fill-rule="nonzero"/></g></svg>

<?xml version="1.0" encoding="UTF-8"?>
<svg width="1024px" height="1024px" viewBox="0 0 1024 1024" version="1.1" xmlns="http://www.w3.org/2000/svg" xmlns:xlink="http://www.w3.org/1999/xlink">
    <!-- Generator: Sketch 43.2 (39069) - http://www.bohemiancoding.com/sketch -->
    <title>icon</title>
    <desc>Created with Sketch.</desc>
    <defs>
        <linearGradient x1="50%" y1="0%" x2="50%" y2="100%" id="linearGradient-1">
            <stop stop-color="#FFA900" offset="0%"></stop>
            <stop stop-color="#FF7700" offset="100%"></stop>
        </linearGradient>
        <rect id="path-2" x="0" y="0" width="1024" height="1024"></rect>
    </defs>
    <g id="Page-1" stroke="none" stroke-width="1" fill="none" fill-rule="evenodd">
        <g id="icon">
            <g id="Rectangle">
                <use fill="url(#linearGradient-1)" fill-rule="evenodd" xlink:href="#path-2"></use>
                <rect stroke="#979797" stroke-width="1" x="0.5" y="0.5" width="1023" height="1023"></rect>
            </g>
            <path d="M836,498 C832.441,497.193 829.398,494.928 825.829,494.26 C817.847,492.767 810.029,498.387 807.055,505.616 C805.037,510.519 806,516.798 806,522 L806,555 L806,671 C806,677.628 807.084,685.359 805.545,691.83 C801.207,710.067 783.399,724.119 764.17,719.545 C730.483,711.531 736,672.385 736,646 L736,624 L736,430 L736,367 C736,356.574 737.119,345.44 735.871,335.089 C729.752,284.314 663.892,259.969 625.036,291.782 C613.628,301.122 604.011,314.845 600.455,329.286 C595.688,348.643 598,370.154 598,390 L598,608 L598,671 C598,678.067 598.968,685.942 597.741,692.911 C595.916,703.27 587.991,712.606 578.69,717.18 C563.012,724.889 539.22,717.704 532.71,700.725 C528.923,690.848 530,680.413 530,670 L530,621 L530,437 C530,406.592 532.132,375.319 529.91,345 C527.9,317.577 510.942,290.447 484.13,281.599 C479.836,280.181 475.552,278.189 470.985,278.018 C463.774,277.749 455.276,276.974 448.17,278.259 C420.316,283.297 399.159,303.853 392.455,331.286 C389.891,341.777 391,354.242 391,365 L391,423 L391,610 L391,669 C391,677.775 391.846,687.259 389.544,695.829 C386.356,707.698 375.433,716.785 363.83,719.545 C345.561,723.891 328.323,711.745 322.728,694.711 C320.079,686.644 322,675.445 322,667 L322,608 L322,424 L322,368 C322,354.948 322.68,341.991 319.545,329.286 C313.405,304.404 291.226,282.867 265.83,278.259 C258.727,276.971 250.223,277.75 243.015,278.018 C235.787,278.288 228.763,281.418 222.4,284.6 C205.444,293.078 193.043,306.227 186.728,324.439 C181.625,339.154 184,356.618 184,372 L184,460 L184,510 C184,516.434 182.534,524.914 187.26,530.14 C196.225,540.053 212.097,536.168 216.945,524.384 C219.068,519.225 218,512.477 218,507 L218,473 L218,425 C218,397.887 216.161,370.055 218.054,343.015 C220.05,314.502 260.119,301.094 278.218,323.745 C288.611,336.751 288,351.167 288,367 L288,414 L288,642 L288,680 C288,686.392 287.116,693.53 288.259,699.83 C292.915,725.491 316.56,750.67 343.09,753.871 C352.243,754.976 363.691,755.75 372.715,753.545 C397.155,747.572 418.919,725.894 423.625,701 C426.389,686.382 426,671.917 426,657 L426,601 L426,420 L426,365 C426,356.621 424.381,346.309 426.46,338.171 C429.819,325.019 442.56,313.712 456.039,312.129 C472.692,310.173 489.414,322.017 493.54,338.171 C495.693,346.6 494,357.319 494,366 L494,422 L494,656 C494,673.823 493.533,691.438 498.455,708.711 C505.062,731.896 527.05,747.873 549.286,753.549 C555.923,755.243 562.305,754.807 569,754.17 C575.361,753.564 581.423,753.401 587.561,751.272 C610.123,743.448 627.291,722.172 631.625,699 C633.867,687.014 633,674.149 633,662 L633,602 L633,412 L633,367 C633,348.328 631.682,326.344 651.2,316.6 C654.648,314.878 658.408,313.35 662.17,312.455 C676.873,308.958 694.722,320.162 699.594,334.131 C703.259,344.638 702,355.99 702,367 L702,423 L702,634 L702,674 C702,680.394 701.12,687.528 702.259,693.83 C705.028,709.139 711.553,723.232 721.785,734.946 C726.248,740.054 733.601,744 739.6,747 C763.414,758.91 792.658,756.926 814.255,740.777 C824.726,732.947 831.341,720.887 836.581,709.196 C840.188,701.15 840,691.628 840,683 L840,647 L840,559 L840,524 C840,518.365 840.975,511.695 839.722,506.184 C839.045,503.206 836.772,501.007 836,498 Z" id="Shape" fill="#FFFDF9" fill-rule="nonzero"></path>
        </g>
    </g>
</svg>
